usr/share/icons/biglinux-icons-material/16/actions/edit-node.svg

<svg xmlns="http://www.w3.org/2000/svg" viewBox="0 0 16 16"><path d="M3.5 2A1.5 1.5 0 0 0 2 3.5a1.48 1.48 0 0 0 1 1.406V11H2v3h3v-3H4V4.906c.432-.15.756-.474.906-.906H11v1h3V2h-3v1H4.906A1.48 1.48 0 0 0 3.5 2zm0 1a.5.5 0 1 1 0 1 .5.5 0 0 1 0-1zM12 3h1v1h-1V3zM6 5v6.125l1.27-.625L8.8 12l-.16-2.1L10 9.375 6 5zm-3 7h1v1H3v-1z" style="fill:currentColor;fill-opacity:1;stroke:none;color:#dedede"/></svg>

<svg xmlns="http://www.w3.org/2000/svg" viewBox="0 0 16 16">
  <defs id="defs3051">
    <style type="text/css" id="current-color-scheme">
      .ColorScheme-Text {
        color:#dedede;
      }
      </style>
  </defs>
 <path style="fill:currentColor;fill-opacity:1;stroke:none" 
     d="M 3.5 2 C 2.672 2 2 2.672 2 3.5 C 2 4.156 2.414 4.70225 3 4.90625 L 3 11 L 2 11 L 2 14 L 5 14 L 5 11 L 4 11 L 4 4.90625 C 4.432 4.75625 4.75625 4.432 4.90625 4 L 11 4 L 11 5 L 14 5 L 14 2 L 11 2 L 11 3 L 4.90625 3 C 4.70225 2.414 4.156 2 3.5 2 z M 3.5 3 C 3.776 3 4 3.224 4 3.5 C 4 3.776 3.776 4 3.5 4 C 3.224 4 3 3.776 3 3.5 C 3 3.224 3.224 3 3.5 3 z M 12 3 L 13 3 L 13 4 L 12 4 L 12 3 z M 6 5 L 6 11.125 L 7.2695312 10.5 L 8.8007812 12 L 8.640625 9.9003906 L 10 9.375 L 6 5 z M 3 12 L 4 12 L 4 13 L 3 13 L 3 12 z "
     class="ColorScheme-Text"
     />
</svg>
